T: Emma
M: 3/4
L: 1/8
K: Dmin
e2- ef ec | A2 cA cd | e2 ef ec | A2- Ac BA | BE ^GB EG | e2- ed cB |1 A2 AB cd | e3 :|2 A2 Ac B^G | A3 || a2- a_b a^g | (3aba (3gag f2 | e2- ef e^d | (3efe (3ded c2 | B2 ^GB EG | e2 ed cB |1 A2- AB cd | e3 :|2 A2 Ac B^G | A3 || A2- AB AF | D2 FD FG | A2 AB AF | D2- DF ED | EA, ^CE A,C | A2- AG FE |1 D2 DE FG | A3 :|2 D2 DF E^C | D3 || d2- d_e d^c | (3ded (3cdc B2 | A2- AB A^G | (3ABA (3GAG F2 | E2 ^CE A,C | A2 AG FE |1 D2- DE FG | A3 :|2 D2 DF E^C | D3 ||
